; generated by Slic3r 1.0.1 on 2017-01-09 at 20:27:15

; layer_height = 0.3
; perimeters = 3
; top_solid_layers = 3
; bottom_solid_layers = 3
; fill_density = 0.3
; perimeter_speed = 20
; infill_speed = 25
; travel_speed = 50
; nozzle_diameter = 0.5
; filament_diameter = 1.75
; extrusion_multiplier = 0.85
; perimeters extrusion width = 0.50mm
; infill extrusion width = 0.70mm
; solid infill extrusion width = 0.70mm
; top infill extrusion width = 0.70mm
; first layer extrusion width = 0.80mm

G21 ; set units to millimeters
M190 S60 ; wait for bed temperature to be reached
M104 S190 ; set temperature
; firmware retract settings
M208 S0 Z0
M207 S0 Z0
# firmware retract settings
M208 S-0.1 F180
M207 S3 F400
G29 ; run auto-leveling code
G28 ; home all axes again
M109 S190 ; wait for temperature to be reached
G90 ; use absolute coordinates
G92 E0
M82 ; use absolute distances for extrusion
G1 Z0.400 F3000.000
G10 ; retract
G92 E0
G1 X49.080 Y48.010 F3000.000
G11 ; unretract
G1 X50.120 Y47.080 E0.14508 F1200
G1 X51.320 Y46.360 E0.29059
G1 X52.630 Y45.880 E0.43567
G1 X54.010 Y45.650 E0.58115
G1 X103.410 Y42.050 E5.73157
G1 X104.530 Y42.050 E5.84803
G1 X107.320 Y42.280 E6.13913
G1 X146.380 Y47.190 E10.23271
G1 X147.700 Y47.480 E10.37324
G1 X148.940 Y48.000 E10.51306
G1 X150.070 Y48.730 E10.65295
G1 X151.050 Y49.660 E10.79343
G1 X151.850 Y50.740 E10.93319
G1 X152.440 Y51.960 E11.07411
G1 X152.800 Y53.260 E11.21437
G1 X152.920 Y54.600 E11.35427
G1 X152.920 Y75.600 E13.53793
G1 X152.870 Y76.500 E13.63166
G1 X152.700 Y77.390 E13.72588
G1 X139.330 Y131.560 E19.52772
G1 X138.980 Y132.630 E19.64479
G1 X137.180 Y136.970 E20.13335
G1 X136.650 Y138.010 E20.25473
G1 X134.190 Y142.030 E20.74480
G1 X133.500 Y142.980 E20.86689
G1 X130.440 Y146.560 E21.35661
G1 X129.610 Y147.390 E21.47867
G1 X126.030 Y150.450 E21.96839
G1 X125.080 Y151.140 E22.09048
G1 X121.060 Y153.600 E22.58055
G1 X120.020 Y154.130 E22.70193
G1 X115.680 Y155.930 E23.19049
G1 X114.560 Y156.290 E23.31282
G1 X109.980 Y157.390 E23.80261
G1 X108.830 Y157.580 E23.92381
G1 X104.140 Y157.950 E24.41301
G1 X102.960 Y157.950 E24.53571
G1 X98.260 Y157.580 E25.02595
G1 X97.110 Y157.390 E25.14715
G1 X92.530 Y156.290 E25.63694
G1 X91.410 Y155.930 E25.75927
G1 X87.070 Y154.130 E26.24784
G1 X86.030 Y153.600 E26.36921
G1 X82.010 Y151.140 E26.85929
G1 X81.060 Y150.450 E26.98138
G1 X77.480 Y147.390 E27.47110
G1 X76.650 Y146.560 E27.59315
G1 X73.590 Y142.980 E28.08287
G1 X72.900 Y142.030 E28.20496
G1 X70.440 Y138.010 E28.69504
G1 X69.910 Y136.970 E28.81641
G1 X68.110 Y132.630 E29.30498
G1 X47.590 Y79.810 E35.19732
G1 X47.210 Y78.480 E35.34115
G1 X47.080 Y77.100 E35.48528
G1 X47.080 Y53.100 E37.98090
G1 X47.210 Y51.710 E38.12607
G1 X47.600 Y50.370 E38.27119
G1 X48.230 Y49.120 E38.41674
G1 X49.013 Y48.098 E38.55064
G1 X49.160 Y49.070 F3000.000
G1 X50.140 Y48.010 E38.70076 F1200
G1 X51.320 Y47.190 E38.85017
G1 X52.640 Y46.640 E38.99887
G1 X54.060 Y46.380 E39.14898
G1 X103.460 Y42.780 E44.29941
G1 X104.470 Y42.780 E44.40443
G1 X106.910 Y42.970 E44.65892
G1 X146.290 Y47.920 E48.78603
G1 X147.640 Y48.230 E48.93006
G1 X148.900 Y48.820 E49.07474
G1 X150.010 Y49.650 E49.21886
G1 X150.930 Y50.690 E49.36324
G1 X151.620 Y51.900 E49.50808
G1 X152.040 Y53.220 E49.65212
G1 X152.190 Y54.600 E49.79647
G1 X152.190 Y75.600 E51.98013
G1 X152.140 Y76.410 E52.06451
G1 X151.990 Y77.210 E52.14915
G1 X138.620 Y131.380 E57.95099
G1 X138.300 Y132.350 E58.05720
G1 X136.500 Y136.690 E58.54577
G1 X136.030 Y137.630 E58.65505
G1 X133.570 Y141.650 E59.14512
G1 X132.940 Y142.510 E59.25598
G1 X129.880 Y146.090 E59.74570
G1 X129.140 Y146.830 E59.85452
G1 X125.560 Y149.890 E60.34424
G1 X124.700 Y150.520 E60.45509
G1 X120.680 Y152.980 E60.94516
G1 X119.740 Y153.450 E61.05444
G1 X115.400 Y155.250 E61.54301
G1 X114.390 Y155.580 E61.65350
G1 X109.810 Y156.680 E62.14329
G1 X108.770 Y156.840 E62.25270
G1 X104.080 Y157.210 E62.74190
G1 X103.020 Y157.210 E62.85212
G1 X98.320 Y156.840 E63.34236
G1 X97.280 Y156.680 E63.45178
G1 X92.700 Y155.580 E63.94157
G1 X91.690 Y155.250 E64.05205
G1 X87.350 Y153.450 E64.54062
G1 X86.410 Y152.980 E64.64990
G1 X82.390 Y150.520 E65.13997
G1 X81.530 Y149.890 E65.25083
G1 X77.950 Y146.830 E65.74055
G1 X77.210 Y146.090 E65.84937
G1 X74.150 Y142.510 E66.33909
G1 X73.520 Y141.650 E66.44994
G1 X71.060 Y137.630 E66.94001
G1 X70.590 Y136.690 E67.04929
G1 X68.730 Y132.210 E67.55370
G1 X48.270 Y79.540 E73.42924
G1 X47.930 Y78.340 E73.55893
G1 X47.810 Y77.100 E73.68847
G1 X47.810 Y53.100 E76.18409
G1 X47.970 Y51.670 E76.33371
G1 X48.420 Y50.300 E76.48366
G1 X49.103 Y49.165 E76.62145
G10 ; retract
G92 E0
G1 X112.599 Y118.158 F3000.000
G11 ; unretract
G1 X113.406 Y117.747 E0.09417 F1200
G1 X114.300 Y117.605 E0.18833
G1 X115.195 Y117.747 E0.28251
G1 X116.001 Y118.158 E0.37668
G1 X116.642 Y118.799 E0.47084
G1 X117.053 Y119.605 E0.56501
G1 X117.497 Y122.413 E0.86063
G1 X116.430 Y122.413 E0.97166
G1 X116.001 Y122.842 E1.03463
G1 X115.194 Y123.253 E1.12882
G1 X114.300 Y123.395 E1.22298
G1 X113.406 Y123.253 E1.31714
G1 X112.599 Y122.842 E1.41132
G1 X111.958 Y122.201 E1.50549
G1 X111.547 Y121.395 E1.59965
G1 X111.405 Y120.500 E1.69382
G1 X111.547 Y119.605 E1.78800
G1 X111.958 Y118.799 E1.88216
G1 X112.521 Y118.236 E1.96486
G1 X113.036 Y118.761 F3000.000
G1 X113.636 Y118.455 E2.03481 F1200
G1 X114.300 Y118.350 E2.10474
G1 X114.964 Y118.455 E2.17468
G1 X115.564 Y118.761 E2.24462
G1 X116.039 Y119.236 E2.31455
G1 X116.345 Y119.836 E2.38450
G1 X116.636 Y121.678 E2.57844
G1 X116.125 Y121.678 E2.63160
G1 X115.564 Y122.239 E2.71414
G1 X114.964 Y122.545 E2.78409
G1 X114.300 Y122.650 E2.85403
G1 X113.636 Y122.545 E2.92396
G1 X113.036 Y122.239 E2.99391
G1 X112.561 Y121.764 E3.06384
G1 X112.255 Y121.164 E3.13378
G1 X112.150 Y120.500 E3.20372
G1 X112.255 Y119.836 E3.27366
G1 X112.561 Y119.236 E3.34360
G1 X112.958 Y118.839 E3.40207
G1 X113.474 Y119.363 F3000.000
G1 X113.866 Y119.164 E3.44778 F1200
G1 X114.300 Y119.095 E3.49348
G1 X114.734 Y119.164 E3.53919
G1 X115.126 Y119.363 E3.58491
G1 X115.437 Y119.674 E3.63061
G1 X115.636 Y120.066 E3.67632
G1 X115.775 Y120.942 E3.76859
G1 X115.632 Y120.942 E3.78344
G1 X115.437 Y121.326 E3.82821
G1 X115.126 Y121.637 E3.87391
G1 X114.734 Y121.836 E3.91963
G1 X114.300 Y121.905 E3.96534
G1 X113.866 Y121.836 E4.01104
G1 X113.474 Y121.637 E4.05675
G1 X113.163 Y121.326 E4.10246
G1 X112.964 Y120.934 E4.14817
G1 X112.895 Y120.500 E4.19388
G1 X112.964 Y120.066 E4.23959
G1 X113.163 Y119.674 E4.28530
G1 X113.396 Y119.441 E4.31953
G1 X113.451 Y118.924 F3000.000
G10 ; retract
G92 E0
G1 X95.695 Y120.500 F3000.000
G11 ; unretract
G1 X95.553 Y121.395 E0.09418 F1200
G1 X95.142 Y122.201 E0.18835
G1 X94.501 Y122.842 E0.28251
G1 X93.694 Y123.253 E0.37669
G1 X92.800 Y123.395 E0.47086
G1 X91.906 Y123.253 E0.56502
G1 X91.099 Y122.842 E0.65920
G1 X90.392 Y122.135 E0.76307
G1 X89.647 Y122.135 E0.84060
G1 X90.047 Y119.605 E1.10694
G1 X90.458 Y118.799 E1.20112
G1 X91.099 Y118.158 E1.29528
G1 X91.906 Y117.747 E1.38945
G1 X92.800 Y117.605 E1.48361
G1 X93.695 Y117.747 E1.57779
G1 X94.501 Y118.158 E1.67196
G1 X95.142 Y118.799 E1.76613
G1 X95.553 Y119.605 E1.86029
G1 X95.677 Y120.391 E1.94299
G1 X94.950 Y120.500 F3000.000
G1 X94.845 Y121.164 E2.01294 F1200
G1 X94.539 Y121.764 E2.08288
G1 X94.064 Y122.239 E2.15281
G1 X93.464 Y122.545 E2.22276
G1 X92.800 Y122.650 E2.29270
G1 X92.136 Y122.545 E2.36263
G1 X91.536 Y122.239 E2.43257
G1 X91.061 Y121.764 E2.50250
G1 X90.875 Y121.400 E2.54497
G1 X90.508 Y121.400 E2.58319
G1 X90.755 Y119.836 E2.74785
G1 X91.061 Y119.236 E2.81780
G1 X91.536 Y118.761 E2.88773
G1 X92.136 Y118.455 E2.95768
G1 X92.800 Y118.350 E3.02761
G1 X93.464 Y118.455 E3.09755
G1 X94.064 Y118.761 E3.16749
G1 X94.539 Y119.236 E3.23743
G1 X94.845 Y119.836 E3.30737
G1 X94.933 Y120.391 E3.36583
G1 X94.205 Y120.500 F3000.000
G1 X94.136 Y120.934 E3.41155 F1200
G1 X93.937 Y121.326 E3.45725
G1 X93.626 Y121.637 E3.50296
G1 X93.234 Y121.836 E3.54867
G1 X92.800 Y121.905 E3.59438
G1 X92.366 Y121.836 E3.64009
G1 X91.974 Y121.637 E3.68580
G1 X91.663 Y121.326 E3.73150
G1 X91.464 Y120.934 E3.77722
G1 X91.421 Y120.664 E3.80565
G1 X91.369 Y120.664 E3.81105
G1 X91.464 Y120.066 E3.87404
G1 X91.663 Y119.674 E3.91975
G1 X91.974 Y119.363 E3.96545
G1 X92.366 Y119.164 E4.01117
G1 X92.800 Y119.095 E4.05687
G1 X93.234 Y119.164 E4.10258
G1 X93.626 Y119.363 E4.14829
G1 X93.937 Y119.674 E4.19400
G1 X94.136 Y120.066 E4.23971
G1 X94.188 Y120.391 E4.27394
G1 X94.574 Y120.739 F3000.000
G1 X98.668 Y120.500 F3000.000
G1 X98.775 Y119.485 E4.38006 F1200
G1 X99.090 Y118.514 E4.48618
G1 X99.601 Y117.631 E4.59230
G1 X100.284 Y116.872 E4.69842
G1 X101.109 Y116.272 E4.80453
G1 X102.042 Y115.857 E4.91065
G1 X103.040 Y115.645 E5.01677
G1 X104.060 Y115.645 E5.12289
G1 X105.058 Y115.857 E5.22900
G1 X105.991 Y116.272 E5.33512
G1 X106.816 Y116.872 E5.44124
G1 X107.499 Y117.631 E5.54735
G1 X108.010 Y118.514 E5.65347
G1 X108.325 Y119.485 E5.75959
G1 X108.631 Y122.395 E6.06386
G1 X108.062 Y122.395 E6.12303
G1 X107.499 Y123.369 E6.24000
G1 X106.816 Y124.128 E6.34612
G1 X105.991 Y124.728 E6.45224
G1 X105.058 Y125.143 E6.55836
G1 X104.060 Y125.355 E6.66447
G1 X103.040 Y125.355 E6.77060
G1 X102.042 Y125.143 E6.87671
G1 X101.109 Y124.728 E6.98283
G1 X100.284 Y124.128 E7.08894
G1 X99.601 Y123.369 E7.19506
G1 X99.090 Y122.486 E7.30118
G1 X98.775 Y121.515 E7.40729
G1 X98.680 Y120.610 E7.50194
G1 X99.408 Y120.500 F3000.000
G1 X99.499 Y119.639 E7.59198 F1200
G1 X99.766 Y118.815 E7.68202
G1 X100.199 Y118.065 E7.77206
G1 X100.779 Y117.422 E7.86210
G1 X101.479 Y116.913 E7.95213
G1 X102.270 Y116.561 E8.04217
G1 X103.117 Y116.381 E8.13221
G1 X103.983 Y116.381 E8.22225
G1 X104.830 Y116.561 E8.31229
G1 X105.621 Y116.913 E8.40233
G1 X106.321 Y117.422 E8.49236
G1 X106.901 Y118.065 E8.58240
G1 X107.334 Y118.815 E8.67244
G1 X107.601 Y119.639 E8.76248
G1 X107.814 Y121.660 E8.97375
G1 X107.504 Y121.660 E9.00592
G1 X107.334 Y122.185 E9.06334
G1 X106.901 Y122.935 E9.15338
G1 X106.321 Y123.578 E9.24341
G1 X105.621 Y124.087 E9.33345
G1 X104.830 Y124.439 E9.42349
G1 X103.983 Y124.619 E9.51353
G1 X103.117 Y124.619 E9.60357
G1 X102.270 Y124.439 E9.69360
G1 X101.479 Y124.087 E9.78364
G1 X100.779 Y123.578 E9.87368
G1 X100.199 Y122.935 E9.96372
G1 X99.766 Y122.185 E10.05376
G1 X99.499 Y121.361 E10.14379
G1 X99.420 Y120.610 E10.22236
G1 X100.148 Y120.500 F3000.000
G1 X100.222 Y119.793 E10.29632 F1200
G1 X100.442 Y119.116 E10.37028
G1 X100.798 Y118.500 E10.44424
G1 X101.273 Y117.972 E10.51820
G1 X101.849 Y117.554 E10.59216
G1 X102.499 Y117.264 E10.66611
G1 X103.194 Y117.116 E10.74007
G1 X103.906 Y117.116 E10.81403
G1 X104.601 Y117.264 E10.88799
G1 X105.251 Y117.554 E10.96195
G1 X105.827 Y117.972 E11.03591
G1 X106.302 Y118.500 E11.10987
G1 X106.658 Y119.116 E11.18383
G1 X106.878 Y119.793 E11.25779
G1 X106.997 Y120.924 E11.37607
G1 X106.970 Y120.924 E11.37886
G1 X106.658 Y121.884 E11.48381
G1 X106.302 Y122.500 E11.55776
G1 X105.827 Y123.028 E11.63172
G1 X105.251 Y123.446 E11.70568
G1 X104.601 Y123.736 E11.77964
G1 X103.906 Y123.884 E11.85360
G1 X103.194 Y123.884 E11.92756
G1 X102.499 Y123.736 E12.00152
G1 X101.849 Y123.446 E12.07548
G1 X101.273 Y123.028 E12.14944
G1 X100.798 Y122.500 E12.22339
G1 X100.442 Y121.884 E12.29735
G1 X100.222 Y121.207 E12.37131
G1 X100.159 Y120.610 E12.43380
G1 X99.545 Y120.123 F3000.000
G1 X75.773 Y116.101 F3000.000
G1 X76.803 Y111.810 E12.89268 F1200
G1 X78.492 Y107.732 E13.35156
G1 X80.752 Y104.045 E13.80128
G1 X80.798 Y103.970 E13.81045
G1 X83.664 Y100.614 E14.26932
G1 X87.020 Y97.748 E14.72820
G1 X90.782 Y95.442 E15.18709
G1 X94.860 Y93.753 E15.64597
G1 X99.151 Y92.723 E16.10485
G1 X103.550 Y92.377 E16.56373
G1 X107.949 Y92.723 E17.02261
G1 X112.240 Y93.753 E17.48150
G1 X116.318 Y95.442 E17.94037
G1 X120.080 Y97.748 E18.39926
G1 X123.436 Y100.614 E18.85814
G1 X126.302 Y103.970 E19.31702
G1 X128.608 Y107.732 E19.77590
G1 X130.297 Y111.810 E20.23478
G1 X131.327 Y116.101 E20.69367
G1 X131.673 Y120.500 E21.15255
G1 X131.327 Y124.899 E21.61143
G1 X130.297 Y129.190 E22.07031
G1 X128.608 Y133.268 E22.52919
G1 X126.302 Y137.030 E22.98808
G1 X123.436 Y140.386 E23.44696
G1 X120.080 Y143.252 E23.90583
G1 X116.318 Y145.558 E24.36472
G1 X112.240 Y147.247 E24.82360
G1 X107.949 Y148.277 E25.28248
G1 X103.550 Y148.623 E25.74136
G1 X99.151 Y148.277 E26.20024
G1 X94.860 Y147.247 E26.65913
G1 X90.782 Y145.558 E27.11801
G1 X87.020 Y143.252 E27.57689
G1 X83.664 Y140.386 E28.03577
G1 X80.798 Y137.030 E28.49465
G1 X78.492 Y133.268 E28.95354
G1 X76.803 Y129.190 E29.41241
G1 X75.834 Y125.150 E29.84445
G1 X75.793 Y125.150 E29.84866
G1 X75.427 Y120.500 E30.33373
G1 X75.765 Y116.211 E30.78114
G1 X99.035 Y149.005 F3000.000
G1 X94.631 Y147.948 E31.25206 F1200
G1 X90.447 Y146.215 E31.72298
G1 X86.586 Y143.849 E32.19391
G1 X83.142 Y140.908 E32.66482
G1 X80.201 Y137.464 E33.13574
G1 X77.835 Y133.603 E33.60667
G1 X76.102 Y129.419 E34.07759
G1 X75.045 Y125.015 E34.54851
G1 X74.689 Y120.500 E35.01943
G1 X75.045 Y115.985 E35.49035
G1 X76.102 Y111.581 E35.96128
G1 X77.835 Y107.397 E36.43220
G1 X80.125 Y103.660 E36.88794
G1 X80.201 Y103.536 E36.90312
G1 X83.142 Y100.092 E37.37404
G1 X86.586 Y97.151 E37.84496
G1 X90.447 Y94.785 E38.31589
G1 X94.631 Y93.052 E38.78681
G1 X99.035 Y91.995 E39.25773
G1 X103.550 Y91.639 E39.72865
G1 X108.065 Y91.995 E40.19957
G1 X112.469 Y93.052 E40.67049
G1 X116.653 Y94.785 E41.14141
G1 X120.514 Y97.151 E41.61234
G1 X123.958 Y100.092 E42.08326
G1 X126.899 Y103.536 E42.55418
G1 X129.265 Y107.397 E43.02510
G1 X130.998 Y111.581 E43.49602
G1 X132.055 Y115.985 E43.96695
G1 X132.395 Y120.303 E44.41729
G1 X132.426 Y120.303 E44.42052
G1 X132.055 Y125.015 E44.91202
G1 X130.998 Y129.418 E45.38294
G1 X129.265 Y133.603 E45.85386
G1 X126.899 Y137.464 E46.32479
G1 X123.958 Y140.908 E46.79571
G1 X120.514 Y143.849 E47.26662
G1 X116.653 Y146.215 E47.73755
G1 X112.469 Y147.948 E48.20847
G1 X108.065 Y149.005 E48.67939
G1 X103.550 Y149.361 E49.15032
G1 X99.145 Y149.014 E49.60976
G1 X98.920 Y149.734 F3000.000
G1 X94.403 Y148.650 E50.09272 F1200
G1 X90.112 Y146.873 E50.57569
G1 X86.152 Y144.446 E51.05865
G1 X82.621 Y141.429 E51.54161
G1 X79.604 Y137.898 E52.02457
G1 X77.177 Y133.938 E52.50754
G1 X75.400 Y129.647 E52.99050
G1 X74.316 Y125.130 E53.47346
G1 X73.951 Y120.500 E53.95642
G1 X74.326 Y115.734 E54.45353
G1 X74.348 Y115.734 E54.45581
G1 X75.400 Y111.353 E54.92426
G1 X77.177 Y107.062 E55.40722
G1 X79.604 Y103.102 E55.89019
G1 X82.621 Y99.571 E56.37315
G1 X86.152 Y96.554 E56.85611
G1 X90.112 Y94.127 E57.33908
G1 X94.403 Y92.350 E57.82204
G1 X98.920 Y91.266 E58.30500
G1 X103.743 Y90.886 E58.80813
G1 X103.743 Y90.916 E58.81130
G1 X108.180 Y91.266 E59.27409
G1 X112.697 Y92.350 E59.75705
G1 X116.988 Y94.127 E60.24001
G1 X120.948 Y96.554 E60.72298
G1 X124.479 Y99.571 E61.20594
G1 X127.496 Y103.102 E61.68889
G1 X129.923 Y107.062 E62.17186
G1 X131.700 Y111.353 E62.65482
G1 X132.784 Y115.870 E63.13778
G1 X133.149 Y120.500 E63.62074
G1 X132.784 Y125.130 E64.10371
G1 X131.700 Y129.647 E64.58667
G1 X129.923 Y133.938 E65.06963
G1 X127.496 Y137.898 E65.55260
G1 X124.479 Y141.429 E66.03555
G1 X120.948 Y144.446 E66.51851
G1 X116.988 Y146.873 E67.00148
G1 X112.697 Y148.650 E67.48444
G1 X108.180 Y149.734 E67.96740
G1 X103.550 Y150.099 E68.45036
G1 X99.030 Y149.743 E68.92185
G1 X98.674 Y149.041 F3000.000
G1 X94.888 Y146.692 F3000.000
G1 X77.358 Y129.162 E71.50001 F1200
G1 X76.999 Y127.762 E71.65028
G1 X96.288 Y147.051 E74.48712
G1 X97.657 Y147.380 E74.63354
G1 X76.670 Y126.393 E77.72005
G1 X76.341 Y125.024 E77.86647
G1 X99.026 Y147.709 E81.20267
G1 X100.192 Y147.834 E81.32457
G1 X76.216 Y123.858 E84.85057
G1 X76.127 Y122.729 E84.96837
G1 X101.321 Y147.923 E88.67353
G1 X102.450 Y148.011 E88.79133
G1 X76.039 Y121.600 E92.67564
G1 X75.954 Y120.475 E92.79296
G1 X103.575 Y148.096 E96.85517
G1 X104.540 Y148.020 E96.95578
G1 X76.030 Y119.510 E101.14866
G1 X76.106 Y118.546 E101.24927
G1 X105.504 Y147.944 E105.57283
G1 X106.469 Y147.868 E105.67344
G1 X76.182 Y117.581 E110.12768
G1 X76.258 Y116.617 E110.22829
G1 X107.433 Y147.792 E114.81322
G1 X108.329 Y147.647 E114.90755
G1 X76.403 Y115.721 E119.60286
